packages/core/src/svgs/pundix.svg

<svg width="24" height="24" viewBox="0 0 24 24" fill="none" xmlns="http://www.w3.org/2000/svg">
<g clip-path="url(#clip0_31_16547)">
<path d="M0 0H24V24H0V0Z" fill="url(#paint0_linear_31_16547)"/>
<path d="M6 6.85714L6.85714 6L11.5714 10.7143L10.7143 11.5714L6 6.85714ZM12.4286 13.2857L13.2857 12.4286L18 17.1429L17.1429 18L12.4286 13.2857ZM11.1429 12L12 11.1429L12.8571 12L12 12.8571L11.1429 12ZM12.4286 10.7143L17.1429 6L18 6.85714L13.2857 11.5714L12.4286 10.7143ZM6 17.1429L10.7143 12.4286L11.5714 13.2857L6.85714 18L6 17.1429Z" fill="#F2D30E"/>
</g>
<defs>
<linearGradient id="paint0_linear_31_16547" x1="4.46571" y1="4.16143" x2="29.2071" y2="32.58" gradientUnits="userSpaceOnUse">
<stop stop-color="#1A1E21"/>
<stop offset="1" stop-color="#06060A"/>
</linearGradient>
<clipPath id="clip0_31_16547">
<rect width="24" height="24" fill="white"/>
</clipPath>
</defs>
</svg>

<svg xmlns="http://www.w3.org/2000/svg" width="24" height="24" fill="none" viewBox="0 0 24 24"><g clip-path="url(#a)"><path fill="url(#b)" d="M0 0h24v24H0z"/><path fill="#F2D30E" d="M6 6.857 6.857 6l4.714 4.714-.857.857zm6.429 6.429.857-.857L18 17.143l-.857.857zM11.143 12l.857-.857.857.857-.857.857zm1.286-1.286L17.143 6l.857.857-4.714 4.714zM6 17.143l4.714-4.714.857.857L6.857 18z"/></g><defs><linearGradient id="b" x1="4.466" x2="29.207" y1="4.161" y2="32.58" gradientUnits="userSpaceOnUse"><stop stop-color="#1A1E21"/><stop offset="1" stop-color="#06060A"/></linearGradient><clipPath id="a"><path fill="#fff" d="M0 0h24v24H0z"/></clipPath></defs></svg>
